X:7
T:Reinlender fra Feragen
R:reinländer
Z:Storbrekkingen, Track 18
Z:(see also Smaviltlaget, Track 11b?)
M:4/4
L:1/8
K:D
|: "D"A3B "D/A"AGFE | "D"DFAd "D/F#"f2 f2
| "A"ecAc "A/E"e2 ed | "A"cABc "D"d2 d2
|  "D"A3B "D/A"AGFE | "D"DFAd "D/F#"f2 f2
| "A"ecAc "A/E"eABc | "D"d2"D/A"dc "D"d4 :|
|: "G"BGBd "G/B"BGBd | "D"A2 F2 "D/A"FEFA
| "A/E"A,2CE "A"A,2CE | "D"D2FA "D/A"d3d
|  "G"BGBd "G/B"BGBd | "D"A2 F2 "D/A"FEFA
| "A/E"A,2CE "A"A,2CE | "D"D2"D/A"DC "D"D4 :|
